www/assets/icons/money_off_csred.svg

<svg width="24" height="24" viewBox="0 0 24 24" xmlns="http://www.w3.org/2000/svg" fill='currentColor'><path d="M11.24 6.7201C11.66 6.4101 12.17 6.2501 12.78 6.2501C13.39 6.2501 13.89 6.4101 14.28 6.7401C14.67 7.0601 14.93 7.4401 15.07 7.8601L16.96 7.0601C16.72 6.3501 16.25 5.7101 15.56 5.1401C15.06 4.7401 14.44 4.4901 13.71 4.3701V2.2901H11.71V4.4001C11.3 4.4801 10.92 4.6101 10.57 4.7901C10.22 4.9701 9.92998 5.1801 9.66998 5.4201L11.1 6.8501C11.14 6.8101 11.19 6.7601 11.24 6.7201ZM3.51998 2.1001L2.09998 3.5101L14.45 15.8601C14.02 16.1401 13.5 16.2901 12.9 16.2901C12.19 16.2901 11.58 16.0601 11.07 15.5901C10.57 15.1201 10.21 14.5201 10.01 13.7801L8.02998 14.5801C8.36998 15.7501 8.97998 16.6601 9.85998 17.3101C10.43 17.7301 11.05 17.9901 11.71 18.1401V20.2901H13.71V18.2101C14.15 18.1401 14.58 18.0401 15 17.8601C15.34 17.7201 15.64 17.5401 15.92 17.3301L20.49 21.9001L21.9 20.4901L3.51998 2.1001Z"/></svg>

<svg xmlns="http://www.w3.org/2000/svg" width="24" height="24" viewBox="0 0 24 24" fill='currentColor'><path d="M11.24 6.72c.42-.31.93-.47 1.54-.47s1.11.16 1.5.49c.39.32.65.7.79 1.12l1.89-.8c-.24-.71-.71-1.35-1.4-1.92-.5-.4-1.12-.65-1.85-.77V2.29h-2V4.4q-.615.12-1.14.39c-.35.18-.64.39-.9.63l1.43 1.43c.04-.04.09-.09.14-.13M3.52 2.1 2.1 3.51l12.35 12.35c-.43.28-.95.43-1.55.43-.71 0-1.32-.23-1.83-.7-.5-.47-.86-1.07-1.06-1.81l-1.98.8q.51 1.755 1.83 2.73c.57.42 1.19.68 1.85.83v2.15h2v-2.08c.44-.07.87-.17 1.29-.35.34-.14.64-.32.92-.53l4.57 4.57 1.41-1.41z"/></svg>
